X: 1
T: Miss Rowan Davies
M: 3/4
L: 1/8
R: waltz
K: Gmaj
BA | G4 D2 | D3 E F2 | G6 | G2 g2 f2 | e3 G G2 | d3 G B2 | A6 | A4 BA |
G4 D2 | D3 E F2 | G6 | G3 A BA | E c3 cA | F4 FG | G6 | G4GF |
E3 E E2 | e3 G G2 | d6 | d4 BA | G3 A B2 | d G3 A2 | B6 | B2 c2 d2 |
e3 E G2 | F3 G AF | G3 A GF | G3 A BG | E c3 cA | F4 FG | G6 | G4 z2|
